X:310
T:Amenna Soyledik
T:ABA
Z:Jack Campin, http://www.campin.me.uk/
F:Jack Campin's Nine-Note Tunebook
% last edit 03-02-2013
G:Bektashi hymn
C:Sebilci Huseyin Efendi 
M:C
L:1/8
Q:1/4=112
P:ABA
N:This is in the Ussak mode; the A should be slightly flattened
K:GMin
P:A
F2G2 G2 F2|BBAB c4       |d2dc B2 d2|[1 c2cB A2 G2:|\
                                     [2 c2cB c2 z2||
P:B
Bc2B A2 c2|cB2A G/F/G- GF|BAAG F2 AG|[1 G3 F c2 c2:|\
                                     [2 G4   z4   |]

